src/assets/images/story-levels/el-dorado-map.svg

<svg xmlns="http://www.w3.org/2000/svg" fill="none" viewBox="0 0 1187 509"><path fill="#fff" fill-rule="evenodd" d="M627 37.5c-11.874 0-21.5 9.626-21.5 21.5v391c0 32.309-26.191 58.5-58.5 58.5H251.5c-32.309 0-58.5-26.191-58.5-58.5V247c0-11.874-9.626-21.5-21.5-21.5h-153C8.283 225.5 0 217.217 0 207s8.283-18.5 18.5-18.5h153c32.309 0 58.5 26.191 58.5 58.5v203c0 11.874 9.626 21.5 21.5 21.5H547c11.874 0 21.5-9.626 21.5-21.5V59C568.5 26.691 594.691.5 627 .5h61c32.309 0 58.5 26.191 58.5 58.5v125.5c0 11.874 9.626 21.5 21.5 21.5h83c32.309 0 58.5 26.191 58.5 58.5v8.747c0 15.722 16.324 26.128 30.577 19.49l220.113-102.508c9.26-4.313 20.27-.301 24.58 8.961 4.31 9.262.3 20.267-8.96 24.581L955.697 326.278c-38.781 18.06-83.197-10.251-83.197-53.031V264.5c0-11.874-9.626-21.5-21.5-21.5h-83c-32.309 0-58.5-26.191-58.5-58.5V59c0-11.874-9.626-21.5-21.5-21.5z" clip-rule="evenodd"/><path fill="#63BCC0" fill-rule="evenodd" d="M627 27.5c-16.845 0-30.5 13.655-30.5 30.5v394c0 27.338-22.162 49.5-49.5 49.5H251.5c-27.338 0-49.5-22.162-49.5-49.5V249c0-16.845-13.655-30.5-30.5-30.5h-153A9.5 9.5 0 0 1 9 209a9.5 9.5 0 0 1 9.5-9.5h153c27.338 0 49.5 22.162 49.5 49.5v203c0 16.845 13.655 30.5 30.5 30.5H547c16.845 0 30.5-13.655 30.5-30.5V58c0-27.338 22.162-49.5 49.5-49.5h61c27.338 0 49.5 22.162 49.5 49.5v127.5c0 16.845 13.655 30.5 30.5 30.5h83c27.338 0 49.5 22.162 49.5 49.5v8.952c0 22.265 23.083 37.026 43.294 27.687l220.226-101.763c4.76-2.201 10.4-.124 12.6 4.639 2.2 4.763.13 10.408-4.64 12.609L951.764 319.387c-32.802 15.157-70.264-8.8-70.264-44.935V265.5c0-16.845-13.655-30.5-30.5-30.5h-83c-27.338 0-49.5-22.162-49.5-49.5V58c0-16.845-13.655-30.5-30.5-30.5z" clip-rule="evenodd"/></svg>

<svg xmlns="http://www.w3.org/2000/svg" width="1187" height="509" viewBox="0 0 1187 509" fill="none">
  <path fill-rule="evenodd" clip-rule="evenodd" d="M627 37.5C615.126 37.5 605.5 47.1259 605.5 59V450C605.5 482.309 579.309 508.5 547 508.5H251.5C219.191 508.5 193 482.309 193 450V247C193 235.126 183.374 225.5 171.5 225.5H18.5C8.28273 225.5 0 217.217 0 207C0 196.783 8.28273 188.5 18.5 188.5H171.5C203.809 188.5 230 214.691 230 247V450C230 461.874 239.626 471.5 251.5 471.5H547C558.874 471.5 568.5 461.874 568.5 450V59C568.5 26.6914 594.691 0.5 627 0.5H688C720.309 0.5 746.5 26.6913 746.5 59V184.5C746.5 196.374 756.126 206 768 206H851C883.309 206 909.5 232.191 909.5 264.5V273.247C909.5 288.969 925.824 299.375 940.077 292.737L1160.19 190.229C1169.45 185.916 1180.46 189.928 1184.77 199.19C1189.08 208.452 1185.07 219.457 1175.81 223.771L955.697 326.278C916.916 344.338 872.5 316.027 872.5 273.247V264.5C872.5 252.626 862.874 243 851 243H768C735.691 243 709.5 216.809 709.5 184.5V59C709.5 47.1259 699.874 37.5 688 37.5H627Z" fill="white"/>
  <path fill-rule="evenodd" clip-rule="evenodd" d="M627 27.5C610.155 27.5 596.5 41.1553 596.5 58V452C596.5 479.338 574.338 501.5 547 501.5H251.5C224.162 501.5 202 479.338 202 452V249C202 232.155 188.345 218.5 171.5 218.5H18.5C13.2533 218.5 9 214.247 9 209C9 203.753 13.2533 199.5 18.5 199.5H171.5C198.838 199.5 221 221.662 221 249V452C221 468.845 234.655 482.5 251.5 482.5H547C563.845 482.5 577.5 468.845 577.5 452V58C577.5 30.6619 599.662 8.5 627 8.5H688C715.338 8.5 737.5 30.6619 737.5 58V185.5C737.5 202.345 751.155 216 768 216H851C878.338 216 900.5 238.162 900.5 265.5V274.452C900.5 296.717 923.583 311.478 943.794 302.139L1164.02 200.376C1168.78 198.175 1174.42 200.252 1176.62 205.015C1178.82 209.778 1176.75 215.423 1171.98 217.624L951.764 319.387C918.962 334.544 881.5 310.587 881.5 274.452V265.5C881.5 248.655 867.845 235 851 235H768C740.662 235 718.5 212.838 718.5 185.5V58C718.5 41.1553 704.845 27.5 688 27.5H627Z" fill="#63BCC0"/>
</svg>
